X:103
T:Pritty Kitty
M:C
L:1/8
B:Thompson's Compleat Collection of 200 Favourite Country Dances, vol. 2 (London, 1765)
Z:Transcribed and edited by Flynn Titford-Mock, 2007
Z:abc's:AK/Fiddler's Companion
K:F
FAcf {f}e2d2 | cdBc A2G2 | FAcf e2 fa | gfed {d}c4 :|
|: dcBA BG g2 | cBAG AF f2 | dcBA Bbag | afce [e}f4 :|

